X: 1
T: The Foggy Dew   [Bm]
R: air
Z: 2006 John Chambers <jc@trillian.mit.edu>
M: C
L: 1/8
P: AABA
K: Bm
FA  "^A"| "Bm"B2 AF B2 AF | "A"E2 F2 A,2 B,C | "Bm"DF ED "A"B,3 A, | "Bm"B,6 "^fine"y:|
B,C "^B"| "D"D2 F2 A2 GF | "A"E3 E "D"F2 DE | F2 dc "(F#m)"BA FA | "Bm"B6 "^d.C."y|]

%%sep 1 1 500
%%sep 1 1 500

